src/Assets/Icons/PlayStoreGreen.svg

<svg width="319" height="72" viewBox="0 0 319 72" fill="none" xmlns="http://www.w3.org/2000/svg">
<rect x="0.500977" width="317.998" height="72" rx="14" fill="#199976"/>
<path d="M16.9869 20.794C16.6225 21.1584 16.501 21.7658 16.501 22.4946V49.34C16.501 50.0688 16.7439 50.6762 17.1083 51.0406L17.2298 51.1621L32.2926 36.0995V35.8566L16.9869 20.794Z" fill="url(#paint0_linear_1239_3826)"/>
<path d="M37.1494 41.2015L32.1689 36.2211V35.8567L37.1494 30.8763L37.2709 30.9978L43.2231 34.399C44.9237 35.3708 44.9237 36.95 43.2231 37.9217L37.1494 41.2015Z" fill="url(#paint1_linear_1239_3826)"/>
<path d="M37.2716 41.0802L32.1696 35.9784L16.9854 51.1624C17.5927 51.7698 18.443 51.7698 19.5363 51.2839L37.2716 41.0802Z" fill="url(#paint2_linear_1239_3826)"/>
<path d="M37.2716 30.8764L19.5363 20.7942C18.443 20.1868 17.5927 20.3083 16.9854 20.9157L32.1696 35.9783L37.2716 30.8764Z" fill="url(#paint3_linear_1239_3826)"/>
<path opacity="0.2" d="M37.1501 40.9589L19.5363 50.9196C18.5645 51.527 17.7142 51.4055 17.1068 50.9196L16.9854 51.0411L17.1068 51.1625C17.7142 51.6484 18.5645 51.7699 19.5363 51.1625L37.1501 40.9589Z" fill="black"/>
<path opacity="0.12" d="M16.9869 50.9195C16.6225 50.5551 16.501 49.9477 16.501 49.2189V49.3404C16.501 50.0692 16.7439 50.6766 17.1083 51.041V50.9195H16.9869ZM43.2253 37.5576L37.1516 40.9588L37.2731 41.0803L43.2253 37.679C44.0756 37.1931 44.4401 36.5858 44.4401 35.9784C44.4401 36.5858 43.9542 37.0717 43.2253 37.5576Z" fill="black"/>
<path opacity="0.25" d="M19.5378 20.9156L43.2253 34.3991C43.9542 34.885 44.4401 35.3709 44.4401 35.9782C44.4401 35.3709 44.0756 34.7635 43.2253 34.2776L19.5378 20.7942C17.8372 19.8224 16.501 20.5512 16.501 22.4948V22.6163C16.501 20.7942 17.8372 19.9439 19.5378 20.9156Z" fill="white"/>
<path d="M58.6978 43V28.9082H63.7856C67.9653 28.9082 70.4165 31.4863 70.4165 35.9102V35.9297C70.4165 40.4023 67.9849 43 63.7856 43H58.6978ZM60.8853 41.1152H63.5415C66.4907 41.1152 68.1899 39.2305 68.1899 35.959V35.9395C68.1899 32.6973 66.4614 30.793 63.5415 30.793H60.8853V41.1152ZM77.6333 43.2051C74.5181 43.2051 72.6138 41.125 72.6138 37.707V37.6875C72.6138 34.2793 74.5278 32.1895 77.6333 32.1895C80.729 32.1895 82.6431 34.2695 82.6431 37.6875V37.707C82.6431 41.125 80.7388 43.2051 77.6333 43.2051ZM77.6333 41.4375C79.4497 41.4375 80.4849 40.0508 80.4849 37.707V37.6875C80.4849 35.334 79.4497 33.957 77.6333 33.957C75.8071 33.957 74.7817 35.334 74.7817 37.6875V37.707C74.7817 40.0605 75.8071 41.4375 77.6333 41.4375ZM86.8032 43L83.8735 32.3945H86.0024L87.9067 40.5781H88.063L90.2505 32.3945H92.2622L94.4497 40.5781H94.6157L96.5103 32.3945H98.6099L95.6899 43H93.5122L91.3149 35.0898H91.1489L88.9614 43H86.8032ZM100.778 43V32.3945H102.897V34.0059H103.053C103.571 32.873 104.586 32.1895 106.129 32.1895C108.502 32.1895 109.811 33.6055 109.811 36.1348V43H107.702V36.6328C107.702 34.875 106.969 34.0059 105.417 34.0059C103.864 34.0059 102.897 35.0703 102.897 36.7793V43H100.778ZM112.868 43V28.2344H114.987V43H112.868ZM122.633 43.2051C119.518 43.2051 117.614 41.125 117.614 37.707V37.6875C117.614 34.2793 119.528 32.1895 122.633 32.1895C125.729 32.1895 127.643 34.2695 127.643 37.6875V37.707C127.643 41.125 125.739 43.2051 122.633 43.2051ZM122.633 41.4375C124.45 41.4375 125.485 40.0508 125.485 37.707V37.6875C125.485 35.334 124.45 33.957 122.633 33.957C120.807 33.957 119.782 35.334 119.782 37.6875V37.707C119.782 40.0605 120.807 41.4375 122.633 41.4375ZM133.083 43.1758C131.061 43.1758 129.567 41.9453 129.567 40.0215V40.002C129.567 38.1074 130.993 37.0039 133.522 36.8477L136.393 36.6816V35.7441C136.393 34.582 135.661 33.9375 134.225 33.9375C133.053 33.9375 132.282 34.3672 132.028 35.1191L132.018 35.1582H129.977L129.987 35.0898C130.241 33.3516 131.911 32.1895 134.323 32.1895C136.989 32.1895 138.493 33.5176 138.493 35.7441V43H136.393V41.4961H136.227C135.602 42.5703 134.489 43.1758 133.083 43.1758ZM131.676 39.9336C131.676 40.9102 132.506 41.4863 133.649 41.4863C135.231 41.4863 136.393 40.4512 136.393 39.084V38.1758L133.805 38.3418C132.34 38.4297 131.676 38.957 131.676 39.9141V39.9336ZM145.348 43.1758C142.682 43.1758 140.954 41.0371 140.954 37.707V37.6875C140.954 34.3281 142.653 32.209 145.348 32.209C146.803 32.209 148.043 32.9316 148.61 34.0742H148.776V28.2344H150.885V43H148.776V41.3301H148.61C147.995 42.4922 146.833 43.1758 145.348 43.1758ZM145.954 41.3691C147.721 41.3691 148.805 39.9727 148.805 37.707V37.6875C148.805 35.4219 147.711 34.0254 145.954 34.0254C144.176 34.0254 143.112 35.4121 143.112 37.6875V37.707C143.112 39.9824 144.176 41.3691 145.954 41.3691ZM164 43.2051C160.885 43.2051 158.981 41.125 158.981 37.707V37.6875C158.981 34.2793 160.895 32.1895 164 32.1895C167.096 32.1895 169.01 34.2695 169.01 37.6875V37.707C169.01 41.125 167.106 43.2051 164 43.2051ZM164 41.4375C165.817 41.4375 166.852 40.0508 166.852 37.707V37.6875C166.852 35.334 165.817 33.957 164 33.957C162.174 33.957 161.149 35.334 161.149 37.6875V37.707C161.149 40.0605 162.174 41.4375 164 41.4375ZM171.54 43V32.3945H173.659V34.0059H173.815C174.333 32.873 175.348 32.1895 176.891 32.1895C179.264 32.1895 180.573 33.6055 180.573 36.1348V43H178.463V36.6328C178.463 34.875 177.731 34.0059 176.178 34.0059C174.625 34.0059 173.659 35.0703 173.659 36.7793V43H171.54ZM195.182 43.3418C191.188 43.3418 188.668 40.4902 188.668 35.959V35.9395C188.668 31.4668 191.217 28.5664 195.163 28.5664C198.366 28.5664 200.641 30.3828 201.149 33.1074L201.168 33.2051H198.981L198.952 33.1074C198.444 31.4375 197.096 30.5 195.163 30.5C192.555 30.5 190.905 32.6094 190.905 35.9297V35.9492C190.905 39.3184 192.565 41.4082 195.211 41.4082C197.516 41.4082 199.088 39.9531 199.108 37.7852V37.4727H195.485V35.7051H201.266V37.4531C201.266 41.0273 198.874 43.3418 195.182 43.3418ZM208.532 43.2051C205.417 43.2051 203.512 41.125 203.512 37.707V37.6875C203.512 34.2793 205.426 32.1895 208.532 32.1895C211.627 32.1895 213.542 34.2695 213.542 37.6875V37.707C213.542 41.125 211.637 43.2051 208.532 43.2051ZM208.532 41.4375C210.348 41.4375 211.383 40.0508 211.383 37.707V37.6875C211.383 35.334 210.348 33.957 208.532 33.957C206.706 33.957 205.68 35.334 205.68 37.6875V37.707C205.68 40.0605 206.706 41.4375 208.532 41.4375ZM220.563 43.2051C217.448 43.2051 215.543 41.125 215.543 37.707V37.6875C215.543 34.2793 217.458 32.1895 220.563 32.1895C223.659 32.1895 225.573 34.2695 225.573 37.6875V37.707C225.573 41.125 223.668 43.2051 220.563 43.2051ZM220.563 41.4375C222.379 41.4375 223.415 40.0508 223.415 37.707V37.6875C223.415 35.334 222.379 33.957 220.563 33.957C218.737 33.957 217.711 35.334 217.711 37.6875V37.707C217.711 40.0605 218.737 41.4375 220.563 41.4375ZM232.584 46.7402C229.889 46.7402 228.229 45.5586 227.975 43.791L227.995 43.7715H230.133L230.143 43.791C230.319 44.5234 231.178 45.041 232.614 45.041C234.362 45.041 235.397 44.2207 235.397 42.7754V40.6855H235.241C234.596 41.8379 233.424 42.4824 231.969 42.4824C229.245 42.4824 227.565 40.3828 227.565 37.3945V37.375C227.565 34.3477 229.254 32.209 232.008 32.209C233.493 32.209 234.645 32.9414 235.26 34.1328H235.387V32.3945H237.497V42.7852C237.497 45.1973 235.592 46.7402 232.584 46.7402ZM232.555 40.7344C234.352 40.7344 235.436 39.3672 235.436 37.3848V37.3652C235.436 35.3926 234.342 34.0059 232.555 34.0059C230.749 34.0059 229.733 35.3926 229.733 37.3652V37.3848C229.733 39.3574 230.749 40.7344 232.555 40.7344ZM240.641 43V28.2344H242.76V43H240.641ZM250.368 43.2051C247.262 43.2051 245.387 41.0859 245.387 37.7266V37.7168C245.387 34.4062 247.301 32.1895 250.26 32.1895C253.219 32.1895 255.036 34.3281 255.036 37.5117V38.2539H247.516C247.555 40.2852 248.668 41.4668 250.417 41.4668C251.774 41.4668 252.584 40.793 252.838 40.2461L252.877 40.168L254.918 40.1582L254.899 40.2461C254.547 41.6426 253.083 43.2051 250.368 43.2051ZM250.27 33.9277C248.825 33.9277 247.731 34.9141 247.545 36.7402H252.936C252.77 34.8457 251.706 33.9277 250.27 33.9277ZM263.268 43V28.9082H268.756C271.52 28.9082 273.434 30.7637 273.434 33.5273V33.5469C273.434 36.3008 271.52 38.1855 268.756 38.1855H265.456V43H263.268ZM268.209 30.7539H265.456V36.3496H268.209C270.104 36.3496 271.208 35.3242 271.208 33.5566V33.5371C271.208 31.7793 270.104 30.7539 268.209 30.7539ZM276.11 43V28.2344H278.229V43H276.11ZM284.293 43.1758C282.272 43.1758 280.778 41.9453 280.778 40.0215V40.002C280.778 38.1074 282.204 37.0039 284.733 36.8477L287.604 36.6816V35.7441C287.604 34.582 286.872 33.9375 285.436 33.9375C284.264 33.9375 283.493 34.3672 283.239 35.1191L283.229 35.1582H281.188L281.198 35.0898C281.452 33.3516 283.122 32.1895 285.534 32.1895C288.2 32.1895 289.704 33.5176 289.704 35.7441V43H287.604V41.4961H287.438C286.813 42.5703 285.7 43.1758 284.293 43.1758ZM282.887 39.9336C282.887 40.9102 283.717 41.4863 284.86 41.4863C286.442 41.4863 287.604 40.4512 287.604 39.084V38.1758L285.016 38.3418C283.551 38.4297 282.887 38.957 282.887 39.9141V39.9336ZM293.375 46.7305C293.112 46.7305 292.799 46.7109 292.526 46.6816V45.0117C292.731 45.041 292.995 45.0508 293.239 45.0508C294.225 45.0508 294.821 44.6309 295.133 43.5566L295.29 43.0098L291.442 32.3945H293.727L296.383 40.8711H296.569L299.215 32.3945H301.442L297.497 43.4102C296.598 45.9395 295.524 46.7305 293.375 46.7305Z" fill="white"/>
<defs>
<linearGradient id="paint0_linear_1239_3826" x1="30.8349" y1="22.2638" x2="10.4482" y2="42.6496" gradientUnits="userSpaceOnUse">
<stop stop-color="#00A0FF"/>
<stop offset="0.007" stop-color="#00A1FF"/>
<stop offset="0.26" stop-color="#00BEFF"/>
<stop offset="0.512" stop-color="#00D2FF"/>
<stop offset="0.76" stop-color="#00DFFF"/>
<stop offset="1" stop-color="#00E3FF"/>
</linearGradient>
<linearGradient id="paint1_linear_1239_3826" x1="45.4509" y1="35.9794" x2="16.0578" y2="35.9794" gradientUnits="userSpaceOnUse">
<stop stop-color="#FFE000"/>
<stop offset="0.409" stop-color="#FFBD00"/>
<stop offset="0.775" stop-color="#FFA500"/>
<stop offset="1" stop-color="#FF9C00"/>
</linearGradient>
<linearGradient id="paint2_linear_1239_3826" x1="34.5104" y1="38.7674" x2="6.86576" y2="66.4125" gradientUnits="userSpaceOnUse">
<stop stop-color="#FF3A44"/>
<stop offset="1" stop-color="#C31162"/>
</linearGradient>
<linearGradient id="paint3_linear_1239_3826" x1="13.216" y1="11.8976" x2="25.5612" y2="24.243" gradientUnits="userSpaceOnUse">
<stop stop-color="#32A071"/>
<stop offset="0.069" stop-color="#2DA771"/>
<stop offset="0.476" stop-color="#15CF74"/>
<stop offset="0.801" stop-color="#06E775"/>
<stop offset="1" stop-color="#00F076"/>
</linearGradient>
</defs>
</svg>

<svg width="319" height="72" fill="none" xmlns="http://www.w3.org/2000/svg"><rect x=".501" width="317.998" height="72" rx="14" fill="#199976"/><path d="M16.987 20.794c-.364.364-.486.972-.486 1.7V49.34c0 .729.243 1.336.607 1.7l.122.122L32.293 36.1v-.242L16.987 20.794Z" fill="url(#a)"/><path d="m37.15 41.202-4.981-4.98v-.365l4.98-4.98.122.12 5.952 3.402c1.7.972 1.7 2.551 0 3.523l-6.074 3.28Z" fill="url(#b)"/><path d="m37.272 41.08-5.102-5.102-15.185 15.184c.608.608 1.458.608 2.551.122L37.272 41.08Z" fill="url(#c)"/><path d="M37.272 30.876 19.536 20.794c-1.093-.607-1.943-.486-2.55.122L32.17 35.978l5.102-5.102Z" fill="url(#d)"/><path opacity=".2" d="m37.15 40.959-17.614 9.96c-.972.608-1.822.487-2.43 0l-.12.122.12.122c.608.485 1.458.607 2.43 0L37.15 40.959Z" fill="#000"/><path opacity=".12" d="M16.987 50.92c-.364-.365-.486-.972-.486-1.701v.121c0 .73.243 1.337.607 1.701v-.121h-.121Zm26.238-13.362-6.073 3.4.121.122 5.952-3.401c.85-.486 1.215-1.093 1.215-1.7 0 .607-.486 1.093-1.215 1.579Z" fill="#000"/><path opacity=".25" d="m19.538 20.916 23.687 13.483c.73.486 1.215.972 1.215 1.58 0-.608-.364-1.215-1.215-1.701L19.538 20.794c-1.7-.972-3.037-.243-3.037 1.7v.122c0-1.822 1.336-2.672 3.037-1.7Z" fill="#fff"/><path d="M58.698 43V28.908h5.088c4.18 0 6.63 2.578 6.63 7.002v.02c0 4.472-2.431 7.07-6.63 7.07h-5.088Zm2.187-1.885h2.657c2.949 0 4.648-1.885 4.648-5.156v-.02c0-3.242-1.729-5.146-4.648-5.146h-2.657v10.322Zm16.748 2.09c-3.115 0-5.02-2.08-5.02-5.498v-.02c0-3.408 1.915-5.497 5.02-5.497 3.096 0 5.01 2.08 5.01 5.498v.019c0 3.418-1.904 5.498-5.01 5.498Zm0-1.767c1.817 0 2.852-1.387 2.852-3.731v-.02c0-2.353-1.035-3.73-2.852-3.73-1.826 0-2.851 1.377-2.851 3.73v.02c0 2.353 1.025 3.73 2.851 3.73ZM86.803 43l-2.93-10.605h2.13l1.904 8.183h.156l2.188-8.184h2.011l2.188 8.184h.166l1.894-8.184h2.1L95.69 43h-2.178l-2.197-7.91h-.166L88.96 43h-2.158Zm13.975 0V32.395h2.119v1.61h.156c.518-1.132 1.533-1.816 3.076-1.816 2.373 0 3.682 1.416 3.682 3.946V43h-2.109v-6.367c0-1.758-.733-2.627-2.285-2.627-1.553 0-2.52 1.064-2.52 2.773V43h-2.119Zm12.09 0V28.234h2.119V43h-2.119Zm9.765.205c-3.115 0-5.019-2.08-5.019-5.498v-.02c0-3.408 1.914-5.497 5.019-5.497 3.096 0 5.01 2.08 5.01 5.498v.019c0 3.418-1.904 5.498-5.01 5.498Zm0-1.767c1.817 0 2.852-1.387 2.852-3.731v-.02c0-2.353-1.035-3.73-2.852-3.73-1.826 0-2.851 1.377-2.851 3.73v.02c0 2.353 1.025 3.73 2.851 3.73Zm10.45 1.738c-2.022 0-3.516-1.23-3.516-3.154v-.02c0-1.895 1.426-2.998 3.955-3.154l2.871-.166v-.938c0-1.162-.732-1.806-2.168-1.806-1.172 0-1.943.43-2.197 1.181l-.01.04h-2.041l.01-.07c.254-1.737 1.924-2.9 4.336-2.9 2.666 0 4.17 1.329 4.17 3.555V43h-2.1v-1.504h-.166c-.625 1.074-1.738 1.68-3.144 1.68Zm-1.407-3.242c0 .976.83 1.552 1.973 1.552 1.582 0 2.744-1.035 2.744-2.402v-.908l-2.588.166c-1.465.088-2.129.615-2.129 1.572v.02Zm13.672 3.242c-2.666 0-4.394-2.139-4.394-5.469v-.02c0-3.359 1.699-5.478 4.394-5.478 1.455 0 2.695.723 3.262 1.865h.166v-5.84h2.109V43h-2.109v-1.67h-.166c-.615 1.162-1.777 1.846-3.262 1.846Zm.606-1.807c1.767 0 2.851-1.396 2.851-3.662v-.02c0-2.265-1.094-3.662-2.851-3.662-1.778 0-2.842 1.387-2.842 3.663v.019c0 2.275 1.064 3.662 2.842 3.662ZM164 43.205c-3.115 0-5.019-2.08-5.019-5.498v-.02c0-3.408 1.914-5.497 5.019-5.497 3.096 0 5.01 2.08 5.01 5.498v.019c0 3.418-1.904 5.498-5.01 5.498Zm0-1.767c1.817 0 2.852-1.387 2.852-3.731v-.02c0-2.353-1.035-3.73-2.852-3.73-1.826 0-2.851 1.377-2.851 3.73v.02c0 2.353 1.025 3.73 2.851 3.73ZM171.54 43V32.395h2.119v1.61h.156c.518-1.132 1.533-1.816 3.076-1.816 2.373 0 3.682 1.416 3.682 3.946V43h-2.11v-6.367c0-1.758-.732-2.627-2.285-2.627-1.553 0-2.519 1.064-2.519 2.773V43h-2.119Zm23.642.342c-3.994 0-6.514-2.852-6.514-7.383v-.02c0-4.472 2.549-7.373 6.495-7.373 3.203 0 5.478 1.817 5.986 4.541l.019.098h-2.187l-.029-.098c-.508-1.67-1.856-2.607-3.789-2.607-2.608 0-4.258 2.11-4.258 5.43v.02c0 3.368 1.66 5.458 4.306 5.458 2.305 0 3.877-1.455 3.897-3.623v-.312h-3.623v-1.768h5.781v1.748c0 3.574-2.392 5.889-6.084 5.889Zm13.35-.137c-3.115 0-5.02-2.08-5.02-5.498v-.02c0-3.408 1.914-5.497 5.02-5.497 3.095 0 5.01 2.08 5.01 5.498v.019c0 3.418-1.905 5.498-5.01 5.498Zm0-1.767c1.816 0 2.851-1.387 2.851-3.731v-.02c0-2.353-1.035-3.73-2.851-3.73-1.826 0-2.852 1.377-2.852 3.73v.02c0 2.353 1.026 3.73 2.852 3.73Zm12.031 1.767c-3.115 0-5.02-2.08-5.02-5.498v-.02c0-3.408 1.915-5.497 5.02-5.497 3.096 0 5.01 2.08 5.01 5.498v.019c0 3.418-1.905 5.498-5.01 5.498Zm0-1.767c1.816 0 2.852-1.387 2.852-3.731v-.02c0-2.353-1.036-3.73-2.852-3.73-1.826 0-2.852 1.377-2.852 3.73v.02c0 2.353 1.026 3.73 2.852 3.73Zm12.021 5.302c-2.695 0-4.355-1.181-4.609-2.949l.02-.02h2.138l.01.02c.176.732 1.035 1.25 2.471 1.25 1.748 0 2.783-.82 2.783-2.266v-2.09h-.156c-.645 1.153-1.817 1.797-3.272 1.797-2.724 0-4.404-2.1-4.404-5.087v-.02c0-3.027 1.689-5.166 4.443-5.166 1.485 0 2.637.732 3.252 1.924h.127v-1.739h2.11v10.391c0 2.412-1.905 3.955-4.913 3.955Zm-.029-6.006c1.797 0 2.881-1.367 2.881-3.35v-.019c0-1.972-1.094-3.36-2.881-3.36-1.806 0-2.822 1.388-2.822 3.36v.02c0 1.972 1.016 3.35 2.822 3.35ZM240.641 43V28.234h2.119V43h-2.119Zm9.727.205c-3.106 0-4.981-2.12-4.981-5.478v-.01c0-3.31 1.914-5.527 4.873-5.527 2.959 0 4.776 2.138 4.776 5.322v.742h-7.52c.039 2.031 1.152 3.213 2.901 3.213 1.357 0 2.167-.674 2.421-1.22l.039-.079 2.041-.01-.019.088c-.352 1.397-1.816 2.96-4.531 2.96Zm-.098-9.277c-1.445 0-2.539.986-2.725 2.812h5.391c-.166-1.894-1.23-2.812-2.666-2.812ZM263.268 43V28.908h5.488c2.764 0 4.678 1.856 4.678 4.62v.019c0 2.754-1.914 4.639-4.678 4.639h-3.3V43h-2.188Zm4.941-12.246h-2.753v5.596h2.753c1.895 0 2.999-1.026 2.999-2.793v-.02c0-1.758-1.104-2.783-2.999-2.783ZM276.11 43V28.234h2.119V43h-2.119Zm8.183.176c-2.021 0-3.515-1.23-3.515-3.154v-.02c0-1.895 1.426-2.998 3.955-3.154l2.871-.166v-.938c0-1.162-.732-1.806-2.168-1.806-1.172 0-1.943.43-2.197 1.181l-.01.04h-2.041l.01-.07c.254-1.737 1.924-2.9 4.336-2.9 2.666 0 4.17 1.329 4.17 3.555V43h-2.1v-1.504h-.166c-.625 1.074-1.738 1.68-3.145 1.68Zm-1.406-3.242c0 .976.83 1.552 1.973 1.552 1.582 0 2.744-1.035 2.744-2.402v-.908l-2.588.166c-1.465.088-2.129.615-2.129 1.572v.02Zm10.488 6.797a8.41 8.41 0 0 1-.849-.05v-1.67c.205.03.469.04.713.04.986 0 1.582-.42 1.894-1.494l.157-.547-3.848-10.615h2.285l2.656 8.476h.186l2.646-8.477h2.227l-3.945 11.016c-.899 2.53-1.973 3.32-4.122 3.32Z" fill="#fff"/><defs><linearGradient id="a" x1="30.835" y1="22.264" x2="10.448" y2="42.65" gradientUnits="userSpaceOnUse"><stop stop-color="#00A0FF"/><stop offset=".007" stop-color="#00A1FF"/><stop offset=".26" stop-color="#00BEFF"/><stop offset=".512" stop-color="#00D2FF"/><stop offset=".76" stop-color="#00DFFF"/><stop offset="1" stop-color="#00E3FF"/></linearGradient><linearGradient id="b" x1="45.451" y1="35.979" x2="16.058" y2="35.979" gradientUnits="userSpaceOnUse"><stop stop-color="#FFE000"/><stop offset=".409" stop-color="#FFBD00"/><stop offset=".775" stop-color="orange"/><stop offset="1" stop-color="#FF9C00"/></linearGradient><linearGradient id="c" x1="34.51" y1="38.767" x2="6.866" y2="66.412" gradientUnits="userSpaceOnUse"><stop stop-color="#FF3A44"/><stop offset="1" stop-color="#C31162"/></linearGradient><linearGradient id="d" x1="13.216" y1="11.898" x2="25.561" y2="24.243" gradientUnits="userSpaceOnUse"><stop stop-color="#32A071"/><stop offset=".069" stop-color="#2DA771"/><stop offset=".476" stop-color="#15CF74"/><stop offset=".801" stop-color="#06E775"/><stop offset="1" stop-color="#00F076"/></linearGradient></defs></svg>
